assets/efishery/petugas-lab-fill.svg

<svg width="24" height="25" viewBox="0 0 24 25" fill="none" xmlns="http://www.w3.org/2000/svg">
<path fill-rule="evenodd" clip-rule="evenodd" d="M7 6.02344C7 3.40008 9.12665 1.27344 11.75 1.27344C14.3734 1.27344 16.5 3.40008 16.5 6.02344C16.5 6.43765 16.1642 6.77344 15.75 6.77344H15.5V9.02344C15.5 11.0945 13.8211 12.7734 11.75 12.7734C9.67893 12.7734 8 11.0945 8 9.02344V6.77344H7.75C7.33579 6.77344 7 6.43765 7 6.02344ZM14 6.77344V8.27344H9.5V6.77344H14Z" fill="#1D1D1D"/>
<path d="M7.75 13.7734C6.50736 13.7734 5.5 14.7808 5.5 16.0234V19.2734H11.25C11.6642 19.2734 12 19.6092 12 20.0234C12 20.4377 11.6642 20.7734 11.25 20.7734H4.75C4.33579 20.7734 4 20.4377 4 20.0234V16.0234C4 13.9524 5.67893 12.2734 7.75 12.2734H8.25C8.53235 12.2734 8.79062 12.432 8.91849 12.6834L8.92131 12.6887C8.92516 12.6958 8.93269 12.7094 8.94401 12.7286C8.96668 12.7671 9.00421 12.8274 9.05733 12.9024C9.16414 13.0532 9.33029 13.258 9.56077 13.4629C10.0154 13.867 10.7196 14.2734 11.75 14.2734C12.7804 14.2734 13.4846 13.867 13.9392 13.4629C14.1697 13.258 14.3359 13.0532 14.4427 12.9024C14.4958 12.8274 14.5333 12.7671 14.556 12.7286C14.5673 12.7094 14.5748 12.6958 14.5787 12.6887L14.5815 12.6834C14.7094 12.432 14.9677 12.2734 15.25 12.2734H15.75C17.8211 12.2734 19.5 13.9524 19.5 16.0234V16.5234C19.5 16.9377 19.1642 17.2734 18.75 17.2734C18.3358 17.2734 18 16.9377 18 16.5234V16.0234C18 14.7808 16.9926 13.7734 15.75 13.7734H15.6639C15.505 13.9972 15.2658 14.2906 14.9358 14.584C14.2654 15.1799 13.2196 15.7734 11.75 15.7734C10.2804 15.7734 9.23457 15.1799 8.56423 14.584C8.23417 14.2906 7.99495 13.9972 7.83612 13.7734H7.75Z" fill="#1D1D1D"/>
<path fill-rule="evenodd" clip-rule="evenodd" d="M14 16.0234C14 15.6092 14.3358 15.2734 14.75 15.2734H16.75C17.1642 15.2734 17.5 15.6092 17.5 16.0234C17.5 16.4377 17.1642 16.7734 16.75 16.7734V17.4092C17.9831 17.7488 19 18.7032 19 20.0234C19 21.6897 17.3801 22.7734 15.75 22.7734C14.1199 22.7734 12.5 21.6897 12.5 20.0234C12.5 18.7032 13.5169 17.7488 14.75 17.4092V16.7734C14.3358 16.7734 14 16.4377 14 16.0234ZM14.2743 19.367L14.295 19.3663C14.6838 19.3544 15.1134 19.3961 15.4736 19.5762C15.9627 19.8208 16.2118 19.8771 16.4178 19.8427C16.6013 19.8122 16.8359 19.6947 17.2101 19.3493C16.9234 19.0282 16.429 18.7734 15.75 18.7734C15.0585 18.7734 14.5586 19.0376 14.2743 19.367Z" fill="#1D1D1D"/>
</svg>

<svg viewBox="0 0 24 25" xmlns="http://www.w3.org/2000/svg">
  <path fill-rule="evenodd" clip-rule="evenodd" d="M7 6.023a4.75 4.75 0 1 1 9.5 0 .75.75 0 0 1-.75.75h-.25v2.25a3.75 3.75 0 1 1-7.5 0v-2.25h-.25a.75.75 0 0 1-.75-.75zm7 .75v1.5H9.5v-1.5H14z"/>
  <path d="M7.75 13.773a2.25 2.25 0 0 0-2.25 2.25v3.25h5.75a.75.75 0 0 1 0 1.5h-6.5a.75.75 0 0 1-.75-.75v-4a3.75 3.75 0 0 1 3.75-3.75h.5a.75.75 0 0 1 .668.41l.003.006.023.04a3.348 3.348 0 0 0 .617.734c.454.404 1.159.81 2.189.81s1.735-.406 2.19-.81a3.347 3.347 0 0 0 .616-.734l.023-.04.002-.006a.75.75 0 0 1 .669-.41h.5a3.75 3.75 0 0 1 3.75 3.75v.5a.75.75 0 1 1-1.5 0v-.5a2.25 2.25 0 0 0-2.25-2.25h-.086a4.85 4.85 0 0 1-.728.811c-.67.596-1.716 1.19-3.186 1.19s-2.515-.594-3.186-1.19a4.845 4.845 0 0 1-.728-.81H7.75z"/>
  <path fill-rule="evenodd" clip-rule="evenodd" d="M14 16.023a.75.75 0 0 1 .75-.75h2a.75.75 0 0 1 0 1.5v.636c1.233.34 2.25 1.294 2.25 2.614 0 1.667-1.62 2.75-3.25 2.75s-3.25-1.083-3.25-2.75c0-1.32 1.017-2.274 2.25-2.614v-.636a.75.75 0 0 1-.75-.75zm.274 3.344h.021c.389-.013.818.03 1.179.21.489.244.738.3.944.266.183-.03.418-.148.792-.494-.287-.32-.781-.576-1.46-.576-.691 0-1.191.265-1.476.594z"/>
</svg>
